src/svg/56/video_outline_56.svg

<?xml version="1.0" encoding="UTF-8"?>
<svg width="56px" height="56px" viewBox="0 0 56 56" version="1.1" xmlns="http://www.w3.org/2000/svg" xmlns:xlink="http://www.w3.org/1999/xlink">
    <!-- Generator: Sketch 61.2 (89653) - https://sketch.com -->
    <title>Icons 56/video_outline_56</title>
    <desc>Created with Sketch.</desc>
    <g id="Icons-56/video_outline_56" stroke="none" stroke-width="1" fill="none" fill-rule="evenodd">
        <g id="video_outline_56" fill-rule="nonzero">
            <rect x="0" y="0" width="56" height="56"></rect>
            <path d="M37.7444592,6 C41.3105342,6 42.6036791,6.37130244 43.9073828,7.06853082 C45.2110865,7.76575919 46.2342408,8.78891348 46.9314692,10.0926172 C47.6286976,11.3963209 48,12.6894658 48,16.2555408 L48,39.7444592 C48,43.3105342 47.6286976,44.6036791 46.9314692,45.9073828 C46.2342408,47.2110865 45.2110865,48.2342408 43.9073828,48.9314692 C42.6036791,49.6286976 41.3105342,50 37.7444592,50 L18.2555408,50 C14.6894658,50 13.3963209,49.6286976 12.0926172,48.9314692 C10.7889135,48.2342408 9.76575919,47.2110865 9.06853082,45.9073828 C8.37130244,44.6036791 8,43.3105342 8,39.7444592 L8,16.2555408 C8,12.6894658 8.37130244,11.3963209 9.06853082,10.0926172 C9.76575919,8.78891348 10.7889135,7.76575919 12.0926172,7.06853082 C13.3963209,6.37130244 14.6894658,6 18.2555408,6 L37.7444592,6 Z M38.0593054,9.00083348 L18.2555408,9 C15.4571684,9 14.4950006,9.18580317 13.5074138,9.71397041 C12.7265155,10.1315994 12.1315994,10.7265155 11.7139704,11.5074138 C11.2061173,12.4570165 11.014799,13.3831179 11.0008335,15.9406946 L11,39.7444592 C11,42.5428316 11.1858032,43.5049994 11.7139704,44.4925862 C12.1315994,45.2734845 12.7265155,45.8684006 13.5074138,46.2860296 C14.4950006,46.8141968 15.4571684,47 18.2555408,47 L37.7444592,47 C40.5428316,47 41.5049994,46.8141968 42.4925862,46.2860296 C43.2734845,45.8684006 43.8684006,45.2734845 44.2860296,44.4925862 C44.8141968,43.5049994 45,42.5428316 45,39.7444592 L45,16.2555408 C45,13.4571684 44.8141968,12.4950006 44.2860296,11.5074138 C43.8684006,10.7265155 43.2734845,10.1315994 42.4925862,9.71397041 C41.5429835,9.2061173 40.6168821,9.01479901 38.0593054,9.00083348 Z M18.7180574,38 C19.1638168,38 19.3254599,38.0464128 19.4884229,38.1335664 C19.6513858,38.2207199 19.7792801,38.3486142 19.8664336,38.5115771 C19.9535872,38.6745401 20,38.8361832 20,39.2819426 L20,40.7180574 C20,41.1638168 19.9535872,41.3254599 19.8664336,41.4884229 C19.7792801,41.6513858 19.6513858,41.7792801 19.4884229,41.8664336 C19.3254599,41.9535872 19.1638168,42 18.7180574,42 L17.2819426,42 C16.8361832,42 16.6745401,41.9535872 16.5115771,41.8664336 C16.3486142,41.7792801 16.2207199,41.6513858 16.1335664,41.4884229 C16.0464128,41.3254599 16,41.1638168 16,40.7180574 L16,39.2819426 C16,38.8361832 16.0464128,38.6745401 16.1335664,38.5115771 C16.2207199,38.3486142 16.3486142,38.2207199 16.5115771,38.1335664 C16.6745401,38.0464128 16.8361832,38 17.2819426,38 L18.7180574,38 Z M38.7180574,38 C39.1638168,38 39.3254599,38.0464128 39.4884229,38.1335664 C39.6513858,38.2207199 39.7792801,38.3486142 39.8664336,38.5115771 C39.9535872,38.6745401 40,38.8361832 40,39.2819426 L40,40.7180574 C40,41.1638168 39.9535872,41.3254599 39.8664336,41.4884229 C39.7792801,41.6513858 39.6513858,41.7792801 39.4884229,41.8664336 C39.3254599,41.9535872 39.1638168,42 38.7180574,42 L37.2819426,42 C36.8361832,42 36.6745401,41.9535872 36.5115771,41.8664336 C36.3486142,41.7792801 36.2207199,41.6513858 36.1335664,41.4884229 C36.0464128,41.3254599 36,41.1638168 36,40.7180574 L36,39.2819426 C36,38.8361832 36.0464128,38.6745401 36.1335664,38.5115771 C36.2207199,38.3486142 36.3486142,38.2207199 36.5115771,38.1335664 C36.6745401,38.0464128 36.8361832,38 37.2819426,38 L38.7180574,38 Z M18.7180574,30 C19.1638168,30 19.3254599,30.0464128 19.4884229,30.1335664 C19.6513858,30.2207199 19.7792801,30.3486142 19.8664336,30.5115771 C19.9535872,30.6745401 20,30.8361832 20,31.2819426 L20,32.7180574 C20,33.1638168 19.9535872,33.3254599 19.8664336,33.4884229 C19.7792801,33.6513858 19.6513858,33.7792801 19.4884229,33.8664336 C19.3254599,33.9535872 19.1638168,34 18.7180574,34 L17.2819426,34 C16.8361832,34 16.6745401,33.9535872 16.5115771,33.8664336 C16.3486142,33.7792801 16.2207199,33.6513858 16.1335664,33.4884229 C16.0464128,33.3254599 16,33.1638168 16,32.7180574 L16,31.2819426 C16,30.8361832 16.0464128,30.6745401 16.1335664,30.5115771 C16.2207199,30.3486142 16.3486142,30.2207199 16.5115771,30.1335664 C16.6745401,30.0464128 16.8361832,30 17.2819426,30 L18.7180574,30 Z M38.7180574,30 C39.1638168,30 39.3254599,30.0464128 39.4884229,30.1335664 C39.6513858,30.2207199 39.7792801,30.3486142 39.8664336,30.5115771 C39.9535872,30.6745401 40,30.8361832 40,31.2819426 L40,32.7180574 C40,33.1638168 39.9535872,33.3254599 39.8664336,33.4884229 C39.7792801,33.6513858 39.6513858,33.7792801 39.4884229,33.8664336 C39.3254599,33.9535872 39.1638168,34 38.7180574,34 L37.2819426,34 C36.8361832,34 36.6745401,33.9535872 36.5115771,33.8664336 C36.3486142,33.7792801 36.2207199,33.6513858 36.1335664,33.4884229 C36.0464128,33.3254599 36,33.1638168 36,32.7180574 L36,31.2819426 C36,30.8361832 36.0464128,30.6745401 36.1335664,30.5115771 C36.2207199,30.3486142 36.3486142,30.2207199 36.5115771,30.1335664 C36.6745401,30.0464128 36.8361832,30 37.2819426,30 L38.7180574,30 Z M18.7180574,22 C19.1638168,22 19.3254599,22.0464128 19.4884229,22.1335664 C19.6513858,22.2207199 19.7792801,22.3486142 19.8664336,22.5115771 C19.9535872,22.6745401 20,22.8361832 20,23.2819426 L20,24.7180574 C20,25.1638168 19.9535872,25.3254599 19.8664336,25.4884229 C19.7792801,25.6513858 19.6513858,25.7792801 19.4884229,25.8664336 C19.3254599,25.9535872 19.1638168,26 18.7180574,26 L17.2819426,26 C16.8361832,26 16.6745401,25.9535872 16.5115771,25.8664336 C16.3486142,25.7792801 16.2207199,25.6513858 16.1335664,25.4884229 C16.0464128,25.3254599 16,25.1638168 16,24.7180574 L16,23.2819426 C16,22.8361832 16.0464128,22.6745401 16.1335664,22.5115771 C16.2207199,22.3486142 16.3486142,22.2207199 16.5115771,22.1335664 C16.6745401,22.0464128 16.8361832,22 17.2819426,22 L18.7180574,22 Z M38.7180574,22 C39.1638168,22 39.3254599,22.0464128 39.4884229,22.1335664 C39.6513858,22.2207199 39.7792801,22.3486142 39.8664336,22.5115771 C39.9535872,22.6745401 40,22.8361832 40,23.2819426 L40,24.7180574 C40,25.1638168 39.9535872,25.3254599 39.8664336,25.4884229 C39.7792801,25.6513858 39.6513858,25.7792801 39.4884229,25.8664336 C39.3254599,25.9535872 39.1638168,26 38.7180574,26 L37.2819426,26 C36.8361832,26 36.6745401,25.9535872 36.5115771,25.8664336 C36.3486142,25.7792801 36.2207199,25.6513858 36.1335664,25.4884229 C36.0464128,25.3254599 36,25.1638168 36,24.7180574 L36,23.2819426 C36,22.8361832 36.0464128,22.6745401 36.1335664,22.5115771 C36.2207199,22.3486142 36.3486142,22.2207199 36.5115771,22.1335664 C36.6745401,22.0464128 36.8361832,22 37.2819426,22 L38.7180574,22 Z M18.7180574,14 C19.1638168,14 19.3254599,14.0464128 19.4884229,14.1335664 C19.6513858,14.2207199 19.7792801,14.3486142 19.8664336,14.5115771 C19.9535872,14.6745401 20,14.8361832 20,15.2819426 L20,16.7180574 C20,17.1638168 19.9535872,17.3254599 19.8664336,17.4884229 C19.7792801,17.6513858 19.6513858,17.7792801 19.4884229,17.8664336 C19.3254599,17.9535872 19.1638168,18 18.7180574,18 L17.2819426,18 C16.8361832,18 16.6745401,17.9535872 16.5115771,17.8664336 C16.3486142,17.7792801 16.2207199,17.6513858 16.1335664,17.4884229 C16.0464128,17.3254599 16,17.1638168 16,16.7180574 L16,15.2819426 C16,14.8361832 16.0464128,14.6745401 16.1335664,14.5115771 C16.2207199,14.3486142 16.3486142,14.2207199 16.5115771,14.1335664 C16.6745401,14.0464128 16.8361832,14 17.2819426,14 L18.7180574,14 Z M38.7180574,14 C39.1638168,14 39.3254599,14.0464128 39.4884229,14.1335664 C39.6513858,14.2207199 39.7792801,14.3486142 39.8664336,14.5115771 C39.9535872,14.6745401 40,14.8361832 40,15.2819426 L40,16.7180574 C40,17.1638168 39.9535872,17.3254599 39.8664336,17.4884229 C39.7792801,17.6513858 39.6513858,17.7792801 39.4884229,17.8664336 C39.3254599,17.9535872 39.1638168,18 38.7180574,18 L37.2819426,18 C36.8361832,18 36.6745401,17.9535872 36.5115771,17.8664336 C36.3486142,17.7792801 36.2207199,17.6513858 36.1335664,17.4884229 C36.0464128,17.3254599 36,17.1638168 36,16.7180574 L36,15.2819426 C36,14.8361832 36.0464128,14.6745401 36.1335664,14.5115771 C36.2207199,14.3486142 36.3486142,14.2207199 36.5115771,14.1335664 C36.6745401,14.0464128 36.8361832,14 37.2819426,14 L38.7180574,14 Z" id="↳-Icon-Color" fill="currentColor"></path>
        </g>
    </g>
</svg>

<svg fill="none" height="56" viewBox="0 0 56 56" width="56" xmlns="http://www.w3.org/2000/svg"><path d="m37.7445 6c3.566 0 4.8592.3713 6.1629 1.06853s2.3268 1.72038 3.0241 3.02407c.6972 1.3037 1.0685 2.5969 1.0685 6.1629v23.489c0 3.566-.3713 4.8592-1.0685 6.1629-.6973 1.3037-1.7204 2.3268-3.0241 3.0241-1.3037.6972-2.5969 1.0685-6.1629 1.0685h-19.489c-3.566 0-4.8592-.3713-6.1629-1.0685-1.3037-.6973-2.32684-1.7204-3.02407-3.0241s-1.06853-2.5969-1.06853-6.1629v-23.489c0-3.566.3713-4.8592 1.06853-6.1629.69723-1.30369 1.72037-2.32684 3.02407-3.02407s2.5969-1.06853 6.1629-1.06853zm.3148 3.00083-19.8038-.00083c-2.7983 0-3.7605.1858-4.7481.71397-.7809.41763-1.3758 1.01253-1.7934 1.79343-.5079.9496-.6992 1.8757-.7132 4.4333l-.0008 23.8038c0 2.7983.1858 3.7605.714 4.7481.4176.7809 1.0125 1.3758 1.7934 1.7934.9876.5282 1.9498.714 4.7481.714h19.489c2.7983 0 3.7605-.1858 4.7481-.714.7809-.4176 1.3758-1.0125 1.7934-1.7934.5282-.9876.714-1.9498.714-4.7481v-23.489c0-2.7983-.1858-3.7605-.714-4.7481-.4176-.7809-1.0125-1.3758-1.7934-1.79343-.9496-.50785-1.8757-.69917-4.4333-.71314zm-19.3412 28.99917c.4457 0 .6074.0464.7703.1336.163.0871.2909.215.378.378.0872.1629.1336.3246.1336.7703v1.4362c0 .4457-.0464.6074-.1336.7703-.0871.163-.215.2909-.378.378-.1629.0872-.3246.1336-.7703.1336h-1.4362c-.4457 0-.6074-.0464-.7703-.1336-.163-.0871-.2909-.215-.378-.378-.0872-.1629-.1336-.3246-.1336-.7703v-1.4362c0-.4457.0464-.6074.1336-.7703.0871-.163.215-.2909.378-.378.1629-.0872.3246-.1336.7703-.1336zm20 0c.4457 0 .6074.0464.7703.1336.163.0871.2909.215.378.378.0872.1629.1336.3246.1336.7703v1.4362c0 .4457-.0464.6074-.1336.7703-.0871.163-.215.2909-.378.378-.1629.0872-.3246.1336-.7703.1336h-1.4362c-.4457 0-.6074-.0464-.7703-.1336-.163-.0871-.2909-.215-.378-.378-.0872-.1629-.1336-.3246-.1336-.7703v-1.4362c0-.4457.0464-.6074.1336-.7703.0871-.163.215-.2909.378-.378.1629-.0872.3246-.1336.7703-.1336zm-20-8c.4457 0 .6074.0464.7703.1336.163.0871.2909.215.378.378.0872.1629.1336.3246.1336.7703v1.4362c0 .4457-.0464.6074-.1336.7703-.0871.163-.215.2909-.378.378-.1629.0872-.3246.1336-.7703.1336h-1.4362c-.4457 0-.6074-.0464-.7703-.1336-.163-.0871-.2909-.215-.378-.378-.0872-.1629-.1336-.3246-.1336-.7703v-1.4362c0-.4457.0464-.6074.1336-.7703.0871-.163.215-.2909.378-.378.1629-.0872.3246-.1336.7703-.1336zm20 0c.4457 0 .6074.0464.7703.1336.163.0871.2909.215.378.378.0872.1629.1336.3246.1336.7703v1.4362c0 .4457-.0464.6074-.1336.7703-.0871.163-.215.2909-.378.378-.1629.0872-.3246.1336-.7703.1336h-1.4362c-.4457 0-.6074-.0464-.7703-.1336-.163-.0871-.2909-.215-.378-.378-.0872-.1629-.1336-.3246-.1336-.7703v-1.4362c0-.4457.0464-.6074.1336-.7703.0871-.163.215-.2909.378-.378.1629-.0872.3246-.1336.7703-.1336zm-20-8c.4457 0 .6074.0464.7703.1336.163.0871.2909.215.378.378.0872.1629.1336.3246.1336.7703v1.4362c0 .4457-.0464.6074-.1336.7703-.0871.163-.215.2909-.378.378-.1629.0872-.3246.1336-.7703.1336h-1.4362c-.4457 0-.6074-.0464-.7703-.1336-.163-.0871-.2909-.215-.378-.378-.0872-.1629-.1336-.3246-.1336-.7703v-1.4362c0-.4457.0464-.6074.1336-.7703.0871-.163.215-.2909.378-.378.1629-.0872.3246-.1336.7703-.1336zm20 0c.4457 0 .6074.0464.7703.1336.163.0871.2909.215.378.378.0872.1629.1336.3246.1336.7703v1.4362c0 .4457-.0464.6074-.1336.7703-.0871.163-.215.2909-.378.378-.1629.0872-.3246.1336-.7703.1336h-1.4362c-.4457 0-.6074-.0464-.7703-.1336-.163-.0871-.2909-.215-.378-.378-.0872-.1629-.1336-.3246-.1336-.7703v-1.4362c0-.4457.0464-.6074.1336-.7703.0871-.163.215-.2909.378-.378.1629-.0872.3246-.1336.7703-.1336zm-20-8c.4457 0 .6074.0464.7703.1336.163.0871.2909.215.378.378.0872.1629.1336.3246.1336.7703v1.4362c0 .4457-.0464.6074-.1336.7703-.0871.163-.215.2909-.378.378-.1629.0872-.3246.1336-.7703.1336h-1.4362c-.4457 0-.6074-.0464-.7703-.1336-.163-.0871-.2909-.215-.378-.378-.0872-.1629-.1336-.3246-.1336-.7703v-1.4362c0-.4457.0464-.6074.1336-.7703.0871-.163.215-.2909.378-.378.1629-.0872.3246-.1336.7703-.1336zm20 0c.4457 0 .6074.0464.7703.1336.163.0871.2909.215.378.378.0872.1629.1336.3246.1336.7703v1.4362c0 .4457-.0464.6074-.1336.7703-.0871.163-.215.2909-.378.378-.1629.0872-.3246.1336-.7703.1336h-1.4362c-.4457 0-.6074-.0464-.7703-.1336-.163-.0871-.2909-.215-.378-.378-.0872-.1629-.1336-.3246-.1336-.7703v-1.4362c0-.4457.0464-.6074.1336-.7703.0871-.163.215-.2909.378-.378.1629-.0872.3246-.1336.7703-.1336z" fill="currentColor"/></svg>
